Catalina-light/actions/22/sort-presence.svg

<svg viewBox="0 0 22 22" xmlns="http://www.w3.org/2000/svg">
<defs>
<style id="current-color-scheme" type="text/css">.ColorScheme-Text {
        color:#363636;
      }</style>
</defs>
<path class="ColorScheme-Text" d="m7 3v1h12v-1h-12zm0 2v1h5v-1h-5zm0 4v1h12v-1h-12zm0 2v1h6v-1h-6zm0 4v1h12v-1h-12zm0 2v1h9v-1h-9z" fill="#363636"/>
<path d="m4.5 3c-0.82842 0-1.5 0.67157-1.5 1.5 1e-5 0.82843 0.67158 1.5 1.5 1.5s1.5-0.67157 1.5-1.5c-1e-5 -0.82843-0.67158-1.5-1.5-1.5zm0 6c-0.82843 0-1.5 0.67157-1.5 1.5s0.67157 1.5 1.5 1.5 1.5-0.67157 1.5-1.5-0.67157-1.5-1.5-1.5z" fill="#2ecc71"/>
<path d="m4.5 15c-0.82843 0-1.5 0.67157-1.5 1.5s0.67157 1.5 1.5 1.5 1.5-0.67157 1.5-1.5-0.67157-1.5-1.5-1.5zm12.5 3v1h2v-1h-2z" fill="#da4453"/>
</svg>

<svg xmlns="http://www.w3.org/2000/svg" viewBox="0 0 22 22">
  <defs id="defs3051">
    <style type="text/css" id="current-color-scheme">
      .ColorScheme-Text {
        color:#4d4d4d;
      }
      </style>
  </defs>
 <path 
     style="fill:currentColor;fill-opacity:1;stroke:none" 
     d="M 7 3 L 7 4 L 19 4 L 19 3 L 7 3 z M 7 5 L 7 6 L 12 6 L 12 5 L 7 5 z M 7 9 L 7 10 L 19 10 L 19 9 L 7 9 z M 7 11 L 7 12 L 13 12 L 13 11 L 7 11 z M 7 15 L 7 16 L 19 16 L 19 15 L 7 15 z M 7 17 L 7 18 L 16 18 L 16 17 L 7 17 z "
     class="ColorScheme-Text"
     />
 <path 
     style="fill:#2ecc71;fill-opacity:1;stroke:none" 
     d="M 4.5 3 C 3.67158 3 3.00001 3.67157 3 4.5 C 3.00001 5.32843 3.67158 6 4.5 6 C 5.32842 6 5.99999 5.32843 6 4.5 C 5.99999 3.67157 5.32842 3 4.5 3 z M 4.5 9 C 3.67157 9 3 9.67157 3 10.5 C 3 11.32843 3.67157 12 4.5 12 C 5.32843 12 6 11.32843 6 10.5 C 6 9.67157 5.32843 9 4.5 9 z "
     />
    <path
       style="opacity:1;fill:#da4453;fill-opacity:1;stroke:none"
       d="M 4.5 15 C 3.67157 15 3 15.67157 3 16.5 C 3 17.32843 3.67157 18 4.5 18 C 5.32843 18 6 17.32843 6 16.5 C 6 15.67157 5.32843 15 4.5 15 z M 17 18 L 17 19 L 19 19 L 19 18 L 17 18 z "
        />
</svg>
